superset-frontend/branding/superset-logo-stacked-apache.svg

<?xml version="1.0" encoding="UTF-8" standalone="no"?>
<!--
  Licensed to the Apache Software Foundation (ASF) under one
  or more contributor license agreements.  See the NOTICE file
  distributed with this work for additional information
  regarding copyright ownership.  The ASF licenses this file
  to you under the Apache License, Version 2.0 (the
  "License"); you may not use this file except in compliance
  with the License.  You may obtain a copy of the License at
    http://www.apache.org/licenses/LICENSE-2.0
  Unless required by applicable law or agreed to in writing,
  software distributed under the License is distributed on an
  "AS IS" BASIS, WITHOUT WARRANTIES OR CONDITIONS OF ANY
  KIND, either express or implied.  See the License for the
  specific language governing permissions and limitations
  under the License.
-->
<!DOCTYPE svg PUBLIC "-//W3C//DTD SVG 1.1//EN" "http://www.w3.org/Graphics/SVG/1.1/DTD/svg11.dtd">
<svg width="100%" height="100%" viewBox="0 0 210 202" version="1.1" xmlns="http://www.w3.org/2000/svg" xmlns:xlink="http://www.w3.org/1999/xlink" xml:space="preserve" xmlns:serif="http://www.serif.com/" style="fill-rule:evenodd;clip-rule:evenodd;stroke-linejoin:round;stroke-miterlimit:2;">
    <path d="M141.56,37.83C129.1,37.83 117.56,44.83 106.56,57.08C95.62,44.64 83.94,37.83 70.89,37.83C49.29,37.83 33.52,53.19 33.52,74C33.52,94.81 49.29,110 70.89,110C84.13,110 94.45,103.77 105.89,91.33C117,103.74 128.32,110 141.56,110C163.17,110 178.93,94.83 178.93,74C178.93,53.17 163.17,37.83 141.56,37.83ZM71,88.19C61.85,88.19 56.4,82.19 56.4,74.19C56.4,66.19 61.89,60 71,60C78.78,60 85,66.22 91.82,74.58C85.44,82.36 78.63,88.19 71,88.19ZM140.88,88.19C133.29,88.19 126.88,82.19 120.05,74.19C127.05,65.83 133.05,60 140.88,60C150.03,60 155.48,66.22 155.48,74.19C155.48,82.16 150.07,88.19 140.92,88.19L140.88,88.19Z" style="fill:rgb(72,72,72);fill-rule:nonzero;"/>
    <path d="M122.21,104.88L136.74,87.57C130.9,85.85 125.61,80.64 120.09,74.19L105.93,91.3C110.555,96.709 116.059,101.301 122.21,104.88Z" style="fill:rgb(32,167,201);fill-rule:nonzero;"/>
    <path d="M106.52,57.08C101.915,51.629 96.45,46.967 90.34,43.28L75.8,60.81C81.33,62.69 86.23,67.71 91.43,74.05L92,74.45C92,74.45 106.7,56.88 106.52,57.08Z" style="fill:rgb(32,167,201);fill-rule:nonzero;"/>
    <path d="M84.21,124.29L80,124.29L79.18,126.67L76.77,126.67L80.89,115.67L83.35,115.67L87.45,126.67L85,126.67L84.21,124.29ZM80.6,122.56L83.6,122.56L82.12,118.23L80.6,122.56Z" style="fill:rgb(72,72,72);fill-rule:nonzero;"/>
    <path d="M96.39,122.8C96.442,123.85 96.119,124.885 95.48,125.72C94.852,126.469 93.906,126.88 92.93,126.83C92.504,126.839 92.082,126.757 91.69,126.59C91.33,126.432 91.012,126.192 90.76,125.89L90.76,129.82L88.37,129.82L88.37,118.48L90.53,118.48L90.67,119.48C91.179,118.753 92.023,118.331 92.91,118.36C93.907,118.31 94.868,118.751 95.48,119.54C96.124,120.452 96.445,121.555 96.39,122.67L96.39,122.8ZM93.99,122.63C94.018,121.977 93.873,121.329 93.57,120.75C93.316,120.287 92.818,120.007 92.29,120.03C91.969,120.023 91.65,120.092 91.36,120.23C91.112,120.37 90.905,120.574 90.76,120.82L90.76,124.41C90.907,124.639 91.115,124.822 91.36,124.94C91.675,125.076 92.017,125.137 92.36,125.12C92.866,125.156 93.353,124.914 93.63,124.49C93.927,123.974 94.069,123.384 94.04,122.79L93.99,122.63Z" style="fill:rgb(72,72,72);fill-rule:nonzero;"/>
    <path d="M103.09,126.67C103.003,126.478 102.926,126.281 102.86,126.08C102.797,125.871 102.753,125.657 102.73,125.44C102.478,125.846 102.136,126.188 101.73,126.44C101.3,126.712 100.799,126.851 100.29,126.84C99.515,126.893 98.748,126.654 98.14,126.17C97.626,125.717 97.346,125.054 97.38,124.37C97.355,123.614 97.737,122.899 98.38,122.5C99.277,122.005 100.297,121.775 101.32,121.84L102.66,121.84L102.66,121.19C102.677,120.85 102.554,120.517 102.32,120.27C102.039,120.04 101.682,119.926 101.32,119.95C101.002,119.932 100.688,120.024 100.43,120.21C100.213,120.384 100.094,120.653 100.11,120.93L97.82,120.93C97.799,120.196 98.184,119.507 98.82,119.14C99.624,118.608 100.577,118.345 101.54,118.39C102.461,118.349 103.37,118.609 104.13,119.13C104.795,119.63 105.171,120.429 105.13,121.26L105.13,124.64C105.132,125.002 105.165,125.364 105.23,125.72C105.294,126.063 105.394,126.398 105.53,126.72L103.09,126.67ZM100.89,125.19C101.286,125.201 101.678,125.101 102.02,124.9C102.305,124.753 102.539,124.523 102.69,124.24L102.69,123.08L101.35,123.08C100.934,123.051 100.521,123.176 100.19,123.43C99.935,123.638 99.788,123.951 99.79,124.28C99.78,124.535 99.892,124.78 100.09,124.94C100.317,125.118 100.602,125.207 100.89,125.19Z" style="fill:rgb(72,72,72);fill-rule:nonzero;"/>
    <path d="M110.64,125.12C111.004,125.133 111.359,125.012 111.64,124.78C111.9,124.551 112.044,124.216 112.03,123.87L114.2,123.87C114.229,124.685 113.855,125.464 113.2,125.95C112.459,126.526 111.538,126.824 110.6,126.79C109.462,126.857 108.348,126.435 107.54,125.63C106.8,124.811 106.412,123.733 106.46,122.63L106.46,122.41C106.414,121.309 106.798,120.233 107.53,119.41C109.126,117.988 111.514,117.863 113.25,119.11C113.925,119.664 114.296,120.508 114.25,121.38L112.07,121.38C112.069,121.012 111.934,120.656 111.69,120.38C111.42,120.091 111.035,119.937 110.64,119.96C110.101,119.915 109.582,120.179 109.3,120.64C109.02,121.179 108.885,121.783 108.91,122.39L108.91,122.62C108.882,123.231 109.016,123.838 109.3,124.38C109.565,124.864 110.089,125.153 110.64,125.12Z" style="fill:rgb(72,72,72);fill-rule:nonzero;"/>
    <path d="M118,119.51C118.264,119.149 118.606,118.852 119,118.64C119.418,118.43 119.882,118.323 120.35,118.33C121.165,118.282 121.963,118.592 122.53,119.18C123.121,119.923 123.407,120.864 123.33,121.81L123.33,126.67L120.93,126.67L120.93,121.78C120.973,121.3 120.842,120.821 120.56,120.43C120.273,120.144 119.874,119.998 119.47,120.03C119.172,120.022 118.876,120.077 118.6,120.19C118.359,120.29 118.146,120.448 117.98,120.65L117.98,126.65L115.58,126.65L115.58,114.86L118,114.86L118,119.51Z" style="fill:rgb(72,72,72);fill-rule:nonzero;"/>
    <path d="M129.06,126.83C127.925,126.885 126.815,126.472 125.99,125.69C125.222,124.933 124.805,123.888 124.84,122.81L124.84,122.5C124.799,121.397 125.19,120.32 125.93,119.5C127.51,118.016 129.975,117.943 131.64,119.33C132.333,120.052 132.696,121.031 132.64,122.03L132.64,123.23L127.33,123.23C127.355,123.728 127.566,124.199 127.92,124.55C128.301,124.911 128.816,125.099 129.34,125.07C129.784,125.078 130.227,125.031 130.66,124.93C131.057,124.81 131.443,124.653 131.81,124.46L132.46,125.83C132.029,126.137 131.549,126.367 131.04,126.51C130.4,126.716 129.732,126.824 129.06,126.83ZM128.85,120.03C128.463,120.029 128.096,120.201 127.85,120.5C127.572,120.854 127.405,121.282 127.37,121.73L130.32,121.73L130.32,121.53C130.341,121.125 130.213,120.727 129.96,120.41C129.674,120.109 129.263,119.957 128.85,120L128.85,120.03Z" style="fill:rgb(72,72,72);fill-rule:nonzero;"/>
    <g id="Main">
        <g id="Superset">
            <g id="Full-Lockup-With-Text">
                <g id="Group-7">
                    <g id="Group-17">
                        <g id="Superset-Copy">
                            <g>
                                <path d="M27.66,151C27.703,149.809 27.197,148.662 26.29,147.89C24.843,146.852 23.21,146.102 21.48,145.68C18.234,144.877 15.163,143.484 12.42,141.57C10.375,140.024 9.224,137.561 9.35,135C9.32,132.305 10.643,129.768 12.87,128.25C15.503,126.419 18.666,125.502 21.87,125.64C25.126,125.501 28.324,126.546 30.87,128.58C33.087,130.316 34.338,133.016 34.23,135.83L34.23,135.97L27.66,135.97C27.714,134.549 27.148,133.172 26.11,132.2C24.892,131.179 23.327,130.663 21.74,130.76C20.25,130.667 18.773,131.091 17.56,131.96C16.612,132.688 16.065,133.825 16.09,135.02C16.09,136.164 16.69,137.229 17.67,137.82C19.372,138.84 21.205,139.62 23.12,140.14C26.195,140.858 29.071,142.251 31.54,144.22C33.44,145.904 34.49,148.353 34.4,150.89C34.483,153.584 33.198,156.145 30.99,157.69C28.337,159.467 25.179,160.34 21.99,160.18C18.585,160.256 15.24,159.27 12.42,157.36C9.761,155.631 8.23,152.596 8.42,149.43L8.42,149.3L14.97,149.3C14.829,150.973 15.513,152.613 16.8,153.69C18.327,154.728 20.157,155.228 22,155.11C23.486,155.212 24.965,154.814 26.2,153.98C27.139,153.282 27.684,152.17 27.66,151Z" style="fill:rgb(72,72,72);fill-rule:nonzero;"/>
                                <path d="M53.85,156.13C53.145,157.363 52.136,158.396 50.92,159.13C49.684,159.853 48.272,160.22 46.84,160.19C44.512,160.314 42.246,159.388 40.67,157.67C39.19,155.98 38.45,153.37 38.45,149.81L38.45,134.77L45.16,134.77L45.16,149.91C45.04,151.281 45.362,152.655 46.08,153.83C46.743,154.636 47.758,155.073 48.8,155C49.75,155.027 50.694,154.849 51.57,154.48C52.32,154.164 52.973,153.653 53.46,153L53.46,134.77L60.19,134.77L60.19,159.77L54.45,159.77L53.85,156.13Z" style="fill:rgb(72,72,72);fill-rule:nonzero;"/>
                                <path d="M87.21,147.94C87.363,151.107 86.462,154.238 84.65,156.84C82.972,159.074 80.291,160.337 77.5,160.21C76.3,160.235 75.109,159.985 74.02,159.48C72.99,158.993 72.094,158.262 71.41,157.35L71.41,169.35L64.7,169.35L64.7,134.77L70.76,134.77L71.16,137.77C71.836,136.73 72.747,135.863 73.82,135.24C74.931,134.63 76.183,134.323 77.45,134.35C80.31,134.238 83.034,135.608 84.65,137.97C86.472,140.804 87.366,144.135 87.21,147.5L87.21,147.94ZM80.47,147.42C80.552,145.447 80.15,143.483 79.3,141.7C78.648,140.317 77.229,139.449 75.7,139.5C74.793,139.473 73.894,139.691 73.1,140.13C72.382,140.55 71.796,141.163 71.41,141.9L71.41,152.85C71.807,153.54 72.394,154.102 73.1,154.47C73.924,154.861 74.829,155.049 75.74,155.02C77.201,155.109 78.593,154.365 79.33,153.1C80.167,151.503 80.561,149.711 80.47,147.91L80.47,147.42Z" style="fill:rgb(72,72,72);fill-rule:nonzero;"/>
                                <path d="M101.84,160.21C98.6,160.358 95.451,159.095 93.21,156.75C91.04,154.365 89.887,151.223 90,148L90,147C89.864,143.701 90.931,140.463 93,137.89C95.031,135.494 98.062,134.171 101.2,134.31C104.131,134.14 106.995,135.254 109.04,137.36C110.991,139.643 111.99,142.591 111.83,145.59L111.83,149.26L97,149.26L97,149.39C97.071,150.888 97.654,152.318 98.65,153.44C99.692,154.52 101.152,155.097 102.65,155.02C103.902,155.051 105.152,154.899 106.36,154.57C107.484,154.212 108.566,153.736 109.59,153.15L111.42,157.31C110.224,158.241 108.869,158.946 107.42,159.39C105.617,159.967 103.732,160.244 101.84,160.21ZM101.24,139.5C100.081,139.458 98.975,139.995 98.29,140.93C97.526,142.043 97.08,143.343 97,144.69L97.07,144.81L105.32,144.81L105.32,144.21C105.384,142.987 105.031,141.777 104.32,140.78C103.563,139.878 102.413,139.4 101.24,139.5Z" style="fill:rgb(72,72,72);fill-rule:nonzero;"/>
                                <path d="M129.05,140.56L126.58,140.49C125.716,140.454 124.86,140.673 124.12,141.12C123.463,141.543 122.948,142.152 122.64,142.87L122.64,159.73L115.93,159.73L115.93,134.73L122.18,134.73L122.48,138.42C122.976,137.233 123.755,136.186 124.75,135.37C125.664,134.644 126.802,134.255 127.97,134.27C128.282,134.269 128.593,134.296 128.9,134.35C129.19,134.41 129.47,134.47 129.77,134.55L129.05,140.56Z" style="fill:rgb(72,72,72);fill-rule:nonzero;"/>
                                <path d="M145.86,152.85C145.836,152.078 145.436,151.364 144.79,150.94C143.562,150.208 142.204,149.722 140.79,149.51C138.392,149.137 136.108,148.228 134.11,146.85C132.633,145.702 131.798,143.909 131.87,142.04C131.866,139.891 132.87,137.861 134.58,136.56C136.653,134.974 139.224,134.176 141.83,134.31C144.544,134.17 147.226,134.96 149.43,136.55C151.219,137.861 152.238,139.984 152.14,142.2L152.14,142.34L145.64,142.34C145.662,141.42 145.299,140.532 144.64,139.89C143.071,138.697 140.903,138.637 139.27,139.74C138.663,140.224 138.316,140.964 138.33,141.74C138.327,142.497 138.703,143.207 139.33,143.63C140.564,144.326 141.923,144.771 143.33,144.94C145.791,145.304 148.136,146.232 150.18,147.65C151.667,148.843 152.499,150.676 152.42,152.58C152.443,154.78 151.355,156.85 149.53,158.08C147.291,159.594 144.62,160.342 141.92,160.21C139.077,160.367 136.273,159.47 134.05,157.69C132.27,156.318 131.244,154.177 131.29,151.93L131.34,151.79L137.5,151.79C137.442,152.914 137.93,153.999 138.81,154.7C139.77,155.339 140.909,155.654 142.06,155.6C143.065,155.666 144.065,155.407 144.91,154.86C145.537,154.387 145.893,153.635 145.86,152.85Z" style="fill:rgb(72,72,72);fill-rule:nonzero;"/>
                                <path d="M167.2,160.21C163.963,160.359 160.816,159.095 158.58,156.75C156.391,154.363 155.229,151.206 155.35,147.97L155.35,147C155.222,143.682 156.307,140.428 158.4,137.85C160.431,135.454 163.462,134.131 166.6,134.27C169.973,134.27 172.587,135.287 174.44,137.32C176.391,139.603 177.39,142.551 177.23,145.55L177.23,149.22L162.33,149.22L162.33,149.35C162.392,150.85 162.976,152.283 163.98,153.4C165.019,154.483 166.481,155.061 167.98,154.98C169.232,155.009 170.481,154.858 171.69,154.53C172.813,154.17 173.896,153.694 174.92,153.11L176.74,157.27C175.544,158.201 174.189,158.906 172.74,159.35C170.952,159.936 169.081,160.227 167.2,160.21ZM166.6,139.5C165.442,139.46 164.336,139.996 163.65,140.93C162.873,142.04 162.41,143.339 162.31,144.69L162.38,144.81L170.64,144.81L170.64,144.21C170.704,142.987 170.351,141.777 169.64,140.78C168.892,139.89 167.759,139.413 166.6,139.5Z" style="fill:rgb(72,72,72);fill-rule:nonzero;"/>
                                <path d="M189.77,128.66L189.77,134.77L194,134.77L194,139.5L189.8,139.5L189.8,152.21C189.728,152.951 189.943,153.692 190.4,154.28C190.823,154.709 191.408,154.938 192.01,154.91C192.314,154.914 192.619,154.894 192.92,154.85C193.221,154.804 193.518,154.737 193.81,154.65L194.39,159.52C193.737,159.741 193.068,159.915 192.39,160.04C191.699,160.156 191,160.213 190.3,160.21C188.325,160.337 186.382,159.646 184.93,158.3C183.683,157.02 183.057,154.997 183.05,152.23L183.05,139.5L179.41,139.5L179.41,134.77L183,134.77L183,128.66L189.77,128.66Z" style="fill:rgb(72,72,72);fill-rule:nonzero;"/>
                            </g>
                        </g>
                    </g>
                </g>
            </g>
        </g>
    </g>
    <path d="M198.34,128.94L197.34,128.94L197.34,132.16L196.68,132.16L196.68,128.94L195.68,128.94L195.68,128.36L198.4,128.36L198.34,128.94ZM202.16,129.73L201.1,132.17L200.74,132.17L199.63,129.63L199.63,132.16L198.97,132.16L198.97,128.36L199.79,128.36L200.93,131.12L202.08,128.36L202.86,128.36L202.86,132.16L202.2,132.16L202.16,129.73Z" style="fill:rgb(72,72,72);fill-rule:nonzero;"/>
</svg>

<!--
  Licensed to the Apache Software Foundation (ASF) under one
  or more contributor license agreements.  See the NOTICE file
  distributed with this work for additional information
  regarding copyright ownership.  The ASF licenses this file
  to you under the Apache License, Version 2.0 (the
  "License"); you may not use this file except in compliance
  with the License.  You may obtain a copy of the License at

    http://www.apache.org/licenses/LICENSE-2.0

  Unless required by applicable law or agreed to in writing,
  software distributed under the License is distributed on an
  "AS IS" BASIS, WITHOUT WARRANTIES OR CONDITIONS OF ANY
  KIND, either express or implied.  See the License for the
  specific language governing permissions and limitations
  under the License.
-->
<svg id="Layer_1" data-name="Layer 1" xmlns="http://www.w3.org/2000/svg" viewBox="0 0 210 202"><defs><style>.cls-1{fill:#484848;}.cls-2{fill:#00d1c1;}.cls-3{isolation:isolate;}</style></defs><title>superset-logo-stacked-apache</title><path class="cls-1" d="M141.56,37.83c-12.46,0-24,7-35,19.25C95.62,44.64,83.94,37.83,70.89,37.83c-21.6,0-37.37,15.36-37.37,36.17s15.77,36,37.37,36c13.24,0,23.56-6.23,35-18.67C117,103.74,128.32,110,141.56,110c21.61,0,37.37-15.17,37.37-36S163.17,37.83,141.56,37.83ZM71,88.19c-9.15,0-14.6-6-14.6-14S61.89,60,71,60c7.78,0,14,6.22,20.82,14.58C85.44,82.36,78.63,88.19,71,88.19Zm69.88,0c-7.59,0-14-6-20.83-14,7-8.36,13-14.19,20.83-14.19,9.15,0,14.6,6.22,14.6,14.19S150.07,88.19,140.92,88.19Z"/><path class="cls-2" d="M122.21,104.88l14.53-17.31c-5.84-1.72-11.13-6.93-16.65-13.38L105.93,91.3A63.31,63.31,0,0,0,122.21,104.88Z"/><path class="cls-2" d="M106.52,57.08a65.45,65.45,0,0,0-16.18-13.8L75.8,60.81c5.53,1.88,10.43,6.9,15.63,13.24l.57.4S106.7,56.88,106.52,57.08Z"/><path class="cls-1" d="M84.21,124.29H80l-.82,2.38H76.77l4.12-11h2.46l4.1,11H85Zm-3.61-1.73h3l-1.48-4.33h0Z"/><path class="cls-1" d="M96.39,122.8a4.44,4.44,0,0,1-.91,2.92,3.12,3.12,0,0,1-2.55,1.11,3,3,0,0,1-1.24-.24,2.54,2.54,0,0,1-.93-.7v3.93H88.37V118.48h2.16l.14,1a2.63,2.63,0,0,1,2.24-1.12,3.06,3.06,0,0,1,2.57,1.18,5,5,0,0,1,.91,3.13Zm-2.4-.17a3.71,3.71,0,0,0-.42-1.88,1.39,1.39,0,0,0-1.28-.72,2.06,2.06,0,0,0-.93.2,1.62,1.62,0,0,0-.6.59v3.59a1.47,1.47,0,0,0,.6.53,2.24,2.24,0,0,0,1,.18,1.4,1.4,0,0,0,1.27-.63,3.1,3.1,0,0,0,.41-1.7Z"/><path class="cls-1" d="M103.09,126.67a6,6,0,0,1-.23-.59,3.46,3.46,0,0,1-.13-.64,3.09,3.09,0,0,1-1,1,2.59,2.59,0,0,1-1.44.4,3.11,3.11,0,0,1-2.15-.67,2.25,2.25,0,0,1-.76-1.8,2.12,2.12,0,0,1,1-1.87,5.38,5.38,0,0,1,2.94-.66h1.34v-.65a1.25,1.25,0,0,0-.34-.92,1.43,1.43,0,0,0-1-.32,1.39,1.39,0,0,0-.89.26.86.86,0,0,0-.32.72H97.82v0a2,2,0,0,1,1-1.79,4.54,4.54,0,0,1,2.72-.75,4.25,4.25,0,0,1,2.59.74,2.51,2.51,0,0,1,1,2.13v3.38a6.19,6.19,0,0,0,.1,1.08,4.84,4.84,0,0,0,.3,1Zm-2.2-1.48a2.11,2.11,0,0,0,1.13-.29,1.58,1.58,0,0,0,.67-.66v-1.16h-1.34a1.71,1.71,0,0,0-1.16.35,1.09,1.09,0,0,0-.4.85.81.81,0,0,0,.3.66A1.18,1.18,0,0,0,100.89,125.19Z"/><path class="cls-1" d="M110.64,125.12a1.49,1.49,0,0,0,1-.34,1.15,1.15,0,0,0,.39-.91h2.17l0,0a2.48,2.48,0,0,1-1,2.08,4,4,0,0,1-2.6.84,4,4,0,0,1-3.06-1.16,4.2,4.2,0,0,1-1.08-3v-.22a4.25,4.25,0,0,1,1.07-3,4.58,4.58,0,0,1,5.72-.3,2.75,2.75,0,0,1,1,2.27l0,0h-2.18a1.52,1.52,0,0,0-.38-1,1.33,1.33,0,0,0-1.05-.42,1.43,1.43,0,0,0-1.34.68,3.49,3.49,0,0,0-.39,1.75v.23a3.45,3.45,0,0,0,.39,1.76A1.43,1.43,0,0,0,110.64,125.12Z"/><path class="cls-1" d="M118,119.51a3,3,0,0,1,1-.87,2.91,2.91,0,0,1,1.35-.31,2.8,2.8,0,0,1,2.18.85,3.74,3.74,0,0,1,.8,2.63v4.86h-2.4v-4.89a2,2,0,0,0-.37-1.35,1.39,1.39,0,0,0-1.09-.4,2.14,2.14,0,0,0-.87.16,1.6,1.6,0,0,0-.62.46v6h-2.4V114.86H118Z"/><path class="cls-1" d="M129.06,126.83a4.17,4.17,0,0,1-3.07-1.14,3.87,3.87,0,0,1-1.15-2.88v-.31a4.24,4.24,0,0,1,1.09-3,4.31,4.31,0,0,1,5.71-.17,3.61,3.61,0,0,1,1,2.7v1.2h-5.31l0,0a2,2,0,0,0,.59,1.32,1.91,1.91,0,0,0,1.42.52,5.39,5.39,0,0,0,1.32-.14,6.49,6.49,0,0,0,1.15-.47l.65,1.37a4.58,4.58,0,0,1-1.42.68A6.68,6.68,0,0,1,129.06,126.83Zm-.21-6.8a1.29,1.29,0,0,0-1,.47,2.28,2.28,0,0,0-.48,1.23l0,0h2.95v-.2a1.66,1.66,0,0,0-.36-1.12A1.34,1.34,0,0,0,128.85,120Z"/><g id="Main"><g id="Superset"><g id="Full-Lockup-With-Text"><g id="Group-7"><g id="Group-17"><g id="Superset-Copy" class="cls-3"><g class="cls-3"><path class="cls-1" d="M27.66,151a3.9,3.9,0,0,0-1.37-3.11,13.91,13.91,0,0,0-4.81-2.21,27.29,27.29,0,0,1-9.06-4.11A7.76,7.76,0,0,1,9.35,135a8.06,8.06,0,0,1,3.52-6.75,14.66,14.66,0,0,1,9-2.61,13.5,13.5,0,0,1,9,2.94,8.78,8.78,0,0,1,3.36,7.25l0,.14H27.66a4.91,4.91,0,0,0-1.55-3.77,6.21,6.21,0,0,0-4.37-1.44,6.48,6.48,0,0,0-4.18,1.2,3.76,3.76,0,0,0-1.47,3.06,3.27,3.27,0,0,0,1.58,2.8,21.61,21.61,0,0,0,5.45,2.32,21.25,21.25,0,0,1,8.42,4.08,8.51,8.51,0,0,1,2.86,6.67,8,8,0,0,1-3.41,6.8,14.84,14.84,0,0,1-9,2.49,16.41,16.41,0,0,1-9.57-2.82,8.83,8.83,0,0,1-4-7.93l0-.13h6.55a5.16,5.16,0,0,0,1.83,4.39A8.3,8.3,0,0,0,22,155.11a6.69,6.69,0,0,0,4.2-1.13A3.62,3.62,0,0,0,27.66,151Z"/><path class="cls-1" d="M53.85,156.13a8.34,8.34,0,0,1-2.93,3,7.76,7.76,0,0,1-4.08,1.06,7.81,7.81,0,0,1-6.17-2.52c-1.48-1.69-2.22-4.3-2.22-7.86V134.77h6.71v15.14a6.44,6.44,0,0,0,.92,3.92A3.23,3.23,0,0,0,48.8,155a6.65,6.65,0,0,0,2.77-.52A4.58,4.58,0,0,0,53.46,153V134.77h6.73v25H54.45Z"/><path class="cls-1" d="M87.21,147.94a14.36,14.36,0,0,1-2.56,8.9,8.46,8.46,0,0,1-7.15,3.37,7.88,7.88,0,0,1-3.48-.73,7,7,0,0,1-2.61-2.13v12H64.7V134.77h6.06l.4,3a7.9,7.9,0,0,1,2.66-2.53,7.23,7.23,0,0,1,3.63-.89,8.33,8.33,0,0,1,7.2,3.62,16.23,16.23,0,0,1,2.56,9.53Zm-6.74-.52a12.13,12.13,0,0,0-1.17-5.72,3.84,3.84,0,0,0-3.6-2.2,5.06,5.06,0,0,0-2.6.63,4.44,4.44,0,0,0-1.69,1.77v10.95a4.18,4.18,0,0,0,1.69,1.62,5.73,5.73,0,0,0,2.64.55,3.88,3.88,0,0,0,3.59-1.92,10.09,10.09,0,0,0,1.14-5.19Z"/><path class="cls-1" d="M101.84,160.21a11.23,11.23,0,0,1-8.63-3.46A12.36,12.36,0,0,1,90,148V147A13.64,13.64,0,0,1,93,137.89a10.16,10.16,0,0,1,8.2-3.58,10.11,10.11,0,0,1,7.84,3.05,11.71,11.71,0,0,1,2.79,8.23v3.67H97l0,.13a6.57,6.57,0,0,0,1.65,4.05,5.19,5.19,0,0,0,4,1.58,12.91,12.91,0,0,0,3.71-.45,16.71,16.71,0,0,0,3.23-1.42l1.83,4.16a12.45,12.45,0,0,1-4,2.08A17.29,17.29,0,0,1,101.84,160.21Zm-.6-20.71a3.5,3.5,0,0,0-2.95,1.43A7.42,7.42,0,0,0,97,144.69l.07.12h8.25v-.6a5.42,5.42,0,0,0-1-3.43A3.62,3.62,0,0,0,101.24,139.5Z"/><path class="cls-1" d="M129.05,140.56l-2.47-.07a4.4,4.4,0,0,0-2.46.63,3.92,3.92,0,0,0-1.48,1.75v16.86h-6.71v-25h6.25l.3,3.69a7.86,7.86,0,0,1,2.27-3.05,5.07,5.07,0,0,1,3.22-1.1,5.28,5.28,0,0,1,.93.08c.29.06.57.12.87.2Z"/><path class="cls-1" d="M145.86,152.85a2.37,2.37,0,0,0-1.07-1.91,11,11,0,0,0-4-1.43,16.14,16.14,0,0,1-6.68-2.66,5.81,5.81,0,0,1-2.24-4.81,6.87,6.87,0,0,1,2.71-5.48,11,11,0,0,1,7.25-2.25,11.94,11.94,0,0,1,7.6,2.24,6.64,6.64,0,0,1,2.71,5.65l0,.14h-6.5a3.31,3.31,0,0,0-1-2.45,4.61,4.61,0,0,0-5.37-.15,2.5,2.5,0,0,0-.94,2,2.27,2.27,0,0,0,1,1.89,10.74,10.74,0,0,0,4,1.31,16.17,16.17,0,0,1,6.85,2.71,6,6,0,0,1,2.24,4.93,6.55,6.55,0,0,1-2.89,5.5,12.5,12.5,0,0,1-7.61,2.13,11.57,11.57,0,0,1-7.87-2.52,7.09,7.09,0,0,1-2.76-5.76l.05-.14h6.16a3.49,3.49,0,0,0,1.31,2.91,5.41,5.41,0,0,0,3.25.9,4.68,4.68,0,0,0,2.85-.74A2.39,2.39,0,0,0,145.86,152.85Z"/><path class="cls-1" d="M167.2,160.21a11.2,11.2,0,0,1-8.62-3.46,12.31,12.31,0,0,1-3.23-8.78V147a13.68,13.68,0,0,1,3.05-9.15,10.16,10.16,0,0,1,8.2-3.58q5.06,0,7.84,3.05a11.71,11.71,0,0,1,2.79,8.23v3.67h-14.9l0,.13a6.46,6.46,0,0,0,1.65,4.05,5.16,5.16,0,0,0,4,1.58,13,13,0,0,0,3.71-.45,17,17,0,0,0,3.23-1.42l1.82,4.16a12.45,12.45,0,0,1-4,2.08A17.29,17.29,0,0,1,167.2,160.21Zm-.6-20.71a3.51,3.51,0,0,0-2.95,1.43,7.52,7.52,0,0,0-1.34,3.76l.07.12h8.26v-.6a5.42,5.42,0,0,0-1-3.43A3.62,3.62,0,0,0,166.6,139.5Z"/><path class="cls-1" d="M189.77,128.66v6.11H194v4.73h-4.2v12.71a2.91,2.91,0,0,0,.6,2.07,2.12,2.12,0,0,0,1.61.63,5.84,5.84,0,0,0,.91-.06,6.73,6.73,0,0,0,.89-.2l.58,4.87a14.28,14.28,0,0,1-2,.52,12.37,12.37,0,0,1-2.09.17,7.22,7.22,0,0,1-5.37-1.91q-1.87-1.92-1.88-6.07V139.5h-3.64v-4.73H183v-6.11Z"/></g></g></g></g></g></g></g><path class="cls-1" d="M198.34,128.94h-1v3.22h-.66v-3.22h-1v-.58h2.72Zm3.82.79h0l-1.06,2.44h-.36l-1.11-2.54h0v2.53h-.66v-3.8h.82l1.14,2.76h0l1.15-2.76h.78v3.8h-.66Z"/></svg>
